X:281
T: Bluemlein auf der Haide
N: A0635A
O: Europa, Mitteleuropa, Deutschland
N: Babsts Gsgb 1545 II No. 27.
R: Romanze, Ballade, Lied, religioeses Lied
M: 3/1
L: 1/2
K: F
F2 | F4C2 | F4B2 | A2G4 | F4
C2 | F4G2 | A4B2 | A2G4 | F2EDE2 | F4
F2 | F4C2 | F4B2 | A2G4 | F4
C2 | F4G2 | A4B2 | A2G4 | F2EDE2 | F4
F2 | A4A2 | G3AB2 | c4B2 | c4
A2 | A4A2 | G3AB2 | c2d3c | c4=B2 | c4
A2 | A4A2 | A4G2 | F4E2 | F4
C2 | F4G2 | A4B2 | A2G4 | F2EDE2 | F4

@@@ Tune index: 594
